!!!COM: braid-soundtrack
!!!OTL: downstream
!!!RNB: hooktheoryid: nYAg-XdVmle
**kern	**text
*clefG2	*
*k[f#c#g#]	*
*M3/4	*
=1	=1
8aa	D
8gg#	.
8aa	.
8bb	.
16aa	D/F#
16bb	.
16aa	.
16gg#	.
=2	=2
2ee	E
4cc#	.
=3	=3
8dd	D
8d	.
8cc#	.
8d	.
8b	E
8d	.
=4	=4
8cc#	A
8d	.
8b	.
8d	.
4a	.
=5	=5
8aa	D
8gg#	.
8aa	.
8bb	.
16aa	D/F#
16bb	.
16aa	.
16gg#	.
=6	=6
4ee	E
4dd	.
4cc#	.
=7	=7
16ff#	D
16gg#	.
8ee	.
8ff#	.
8gg#	.
4aa	D/F#
=8	=8
16aa	E
4..bb	.
4gg#	.
=9	=9
8aa	F#m
8a	.
8gg#	.
8a	.
8ff#	.
8a	.
=10	=10
8ee	A
8a	.
8dd	.
8a	.
8cc#	.
8a	.
=11	=11
8dd	D
8cc#	.
8b	.
8cc#	D/F#
8b	.
8a	.
=12	=12
2g#	E
4e	.
=13	=13
8a	A
8b	.
8cc#	.
8dd	.
8ee	.
8ff#	.
=14	=14
8gg	G
8aa	.
8gg	.
8ff#	.
8ee	.
8dd	.
=15	=15
8b	E
8cc#	.
8b	.
8a	.
4g#	.
=16	=16
2.a	A
=17	=17
2.r	.
*-	*-